X: 2
T: Ievan's Polkka
R: polka
M: 2/4
L: 1/8
K: Amin
|: E |A>A AB | cA Ac | BG GB | c/B/A/G/ AE |
A>A AB | cA Ac | de/d/ cB |[1 A2 A :|[2 A2 A2 ||
|: Ec ce | dB Bc | de/d/ cB | AB cd |
ec ce | dB Bc | de/d/ cB |[1 A2 A2 :|[2 A2 A |]


Tune 418	Setting 418

